src/assets/img/icons/duotone-icons/Devices/Battery-half.svg

<?xml version="1.0" encoding="UTF-8"?>
<svg width="24px" height="24px" viewBox="0 0 24 24" version="1.1" xmlns="http://www.w3.org/2000/svg" xmlns:xlink="http://www.w3.org/1999/xlink">
    <!-- Generator: Sketch 52.2 (67145) - http://www.bohemiancoding.com/sketch -->
    <title>Stockholm-icons / Devices / Battery-half</title>
    <desc>Created with Sketch.</desc>
    <g id="Stockholm-icons-/-Devices-/-Battery-half" stroke="none" stroke-width="1" fill="none" fill-rule="evenodd">
        <rect id="bound" x="0" y="0" width="24" height="24"></rect>
        <path d="M11,9 L11,15 L17,15 L17,9 L11,9 Z M4,7 L17,7 C18.1045695,7 19,7.8954305 19,9 L19,15 C19,16.1045695 18.1045695,17 17,17 L4,17 C2.8954305,17 2,16.1045695 2,15 L2,9 C2,7.8954305 2.8954305,7 4,7 Z" id="Combined-Shape" fill="#335EEA"></path>
        <path d="M20,10 L21,10 C21.5522847,10 22,10.4477153 22,11 L22,13 C22,13.5522847 21.5522847,14 21,14 L20,14 L20,10 Z" id="Rectangle" fill="#335EEA" opacity="0.3"></path>
    </g>
</svg>

<svg width="24" height="24" viewBox="0 0 24 24" xmlns="http://www.w3.org/2000/svg"><g fill="none" fill-rule="evenodd"><path d="M0 0h24v24H0z"/><path d="M11 9v6h6V9h-6zM4 7h13a2 2 0 012 2v6a2 2 0 01-2 2H4a2 2 0 01-2-2V9a2 2 0 012-2z" fill="#335EEA"/><path d="M20 10h1a1 1 0 011 1v2a1 1 0 01-1 1h-1v-4z" fill="#335EEA" opacity=".3"/></g></svg>
